svg/fluentui-system-icons/ic_fluent_calculator_20_filled.svg

<svg width="20" height="20" viewBox="0 0 20 20" fill="none" xmlns="http://www.w3.org/2000/svg">
<path d="M13.5 2H6.5C5.11929 2 4 3.11929 4 4.5V15.5C4 16.8807 5.11929 18 6.5 18H13.5C14.8807 18 16 16.8807 16 15.5V4.5C16 3.11929 14.8807 2 13.5 2ZM7.5 4H12.5C13.3284 4 14 4.67157 14 5.5V6.5C14 7.32843 13.3284 8 12.5 8H7.5C6.67157 8 6 7.32843 6 6.5V5.5C6 4.67157 6.67157 4 7.5 4ZM8 11C8 11.5523 7.55228 12 7 12C6.44772 12 6 11.5523 6 11C6 10.4477 6.44772 10 7 10C7.55228 10 8 10.4477 8 11ZM8 14C8 14.5523 7.55228 15 7 15C6.44772 15 6 14.5523 6 14C6 13.4477 6.44772 13 7 13C7.55228 13 8 13.4477 8 14ZM13 12C12.4477 12 12 11.5523 12 11C12 10.4477 12.4477 10 13 10C13.5523 10 14 10.4477 14 11C14 11.5523 13.5523 12 13 12ZM14 14C14 14.5523 13.5523 15 13 15C12.4477 15 12 14.5523 12 14C12 13.4477 12.4477 13 13 13C13.5523 13 14 13.4477 14 14ZM10 12C9.44772 12 9 11.5523 9 11C9 10.4477 9.44772 10 10 10C10.5523 10 11 10.4477 11 11C11 11.5523 10.5523 12 10 12ZM11 14C11 14.5523 10.5523 15 10 15C9.44772 15 9 14.5523 9 14C9 13.4477 9.44772 13 10 13C10.5523 13 11 13.4477 11 14Z" fill="#212121"/>
</svg>

<svg xmlns="http://www.w3.org/2000/svg" width="20" height="20"><path d="M13.5 2h-7A2.5 2.5 0 0 0 4 4.5v11A2.5 2.5 0 0 0 6.5 18h7a2.5 2.5 0 0 0 2.5-2.5v-11A2.5 2.5 0 0 0 13.5 2Zm-6 2h5A1.5 1.5 0 0 1 14 5.5v1A1.5 1.5 0 0 1 12.5 8h-5A1.5 1.5 0 0 1 6 6.5v-1A1.5 1.5 0 0 1 7.5 4Zm.5 7a1 1 0 1 1-2 0 1 1 0 0 1 2 0Zm0 3a1 1 0 1 1-2 0 1 1 0 0 1 2 0Zm5-2a1 1 0 1 1 0-2 1 1 0 0 1 0 2Zm1 2a1 1 0 1 1-2 0 1 1 0 0 1 2 0Zm-4-2a1 1 0 1 1 0-2 1 1 0 0 1 0 2Zm1 2a1 1 0 1 1-2 0 1 1 0 0 1 2 0Z"/></svg>
